lib/brands/icons/adobe-acrobat-alt.svg

<svg xmlns="http://www.w3.org/2000/svg" fill="none" aria-hidden="true" viewBox="0 0 48 48"><g id="adobe-acrobat-alt-Icon"><path id="Vector" fill="#B30B00" d="M29.4767 27.7348C31.5466 27.3598 33.4665 27.1948 35.1165 27.1948C38.1913 27.1948 40.3812 27.8398 41.4462 28.9498C41.9262 29.4897 42.2411 30.5547 41.7612 31.5146C41.5062 32.2496 40.6962 33.1646 38.4613 33.1646C36.6614 33.1646 33.0316 32.5646 28.9367 28.9048C27.2118 29.1898 25.5169 29.5647 23.822 30.0147C22.2321 30.4497 20.6271 30.9747 19.0372 31.5146C16.9673 35.2795 12.8575 41.5642 8.97266 41.5642C7.69771 41.5642 6.94775 40.9342 6.73776 40.7692C6.15279 40.1843 5.8828 39.4343 6.04779 38.6393C6.46777 36.5094 10.2476 33.7945 16.1123 31.4547C17.1773 29.5347 18.1372 27.4648 18.9772 25.4399C19.9222 23.22 20.7771 20.9701 21.5421 18.6752C19.5172 14.2054 18.9772 9.69064 20.1471 7.60574C20.5821 6.91577 21.3771 6.43579 22.1721 6.43579C24.7819 6.43579 25.6969 8.98567 25.6969 11.4456C25.6969 13.6205 25.1119 16.6503 23.882 20.3852C24.5119 21.4951 25.2169 22.6651 26.0119 23.73C27.0468 25.1699 28.2018 26.5049 29.4767 27.7348V27.7348ZM21.9602 17.1393C22.8752 14.1544 23.4002 11.5446 23.4002 9.84964C23.4002 8.82968 23.1902 7.55474 22.0652 7.55474C21.6452 7.55474 21.2553 7.80973 21.0603 8.18471C20.3103 9.51965 20.4153 12.9845 21.9602 17.1393V17.1393ZM7.11034 38.8463C7.00535 39.2813 7.17034 39.6563 7.48532 39.9713C7.71031 40.1363 7.9953 40.2412 8.28029 40.2412C9.88521 40.2412 12.4951 37.4664 15.21 32.9966C10.5152 35.0215 7.42533 37.2564 7.11034 38.8463V38.8463ZM39.3151 30.4947C39.5851 29.1147 38.4152 28.6347 37.6652 28.4698C37.0203 28.3198 36.0753 28.2598 34.9503 28.2598C33.4504 28.2598 31.9505 28.3798 30.4806 28.6347C32.4005 30.2247 34.3054 31.2446 36.3303 31.7246C36.6603 31.7696 36.9153 31.8296 37.2452 31.8296C38.3552 31.8296 39.1502 31.2896 39.3151 30.4947V30.4947ZM25.0538 24.429C24.4688 23.634 23.8839 22.719 23.3439 21.8191C22.8189 23.259 22.2789 24.804 21.649 26.2889C21.079 27.5938 20.479 28.8688 19.834 30.1287C21.079 29.7087 22.3389 29.3337 23.6139 29.0038C25.0688 28.6138 26.5387 28.2688 28.0387 27.9988C27.0037 26.8289 26.0138 25.6439 25.0538 24.429V24.429Z"/></g></svg>

<svg xmlns="http://www.w3.org/2000/svg" fill="none" aria-hidden="true" viewBox="0 0 48 48"><path fill="#B30B00" d="M29.477 27.735c2.07-.375 3.99-.54 5.64-.54 3.074 0 5.264.645 6.33 1.755.48.54.794 1.605.314 2.565-.255.735-1.065 1.65-3.3 1.65-1.8 0-5.43-.6-9.524-4.26-1.725.285-3.42.66-5.115 1.11-1.59.435-3.195.96-4.785 1.5-2.07 3.764-6.18 10.05-10.064 10.05-1.275 0-2.025-.63-2.235-.796-.585-.585-.855-1.335-.69-2.13.42-2.13 4.2-4.845 10.064-7.184 1.065-1.92 2.025-3.99 2.865-6.015.945-2.22 1.8-4.47 2.565-6.765-2.025-4.47-2.565-8.984-1.395-11.07.435-.69 1.23-1.17 2.025-1.17 2.61 0 3.525 2.55 3.525 5.01 0 2.175-.585 5.205-1.815 8.94.63 1.11 1.335 2.28 2.13 3.345a29.372 29.372 0 0 0 3.465 4.005ZM21.96 17.139c.915-2.985 1.44-5.594 1.44-7.29 0-1.02-.21-2.294-1.335-2.294-.42 0-.81.255-1.005.63-.75 1.335-.645 4.8.9 8.954ZM7.11 38.846c-.105.435.06.81.375 1.125.225.165.51.27.795.27 1.605 0 4.215-2.775 6.93-7.244-4.695 2.025-7.785 4.26-8.1 5.85Zm32.205-8.351c.27-1.38-.9-1.86-1.65-2.025-.645-.15-1.59-.21-2.715-.21-1.5 0-3 .12-4.47.375 1.92 1.59 3.825 2.61 5.85 3.09.33.045.585.105.915.105 1.11 0 1.905-.54 2.07-1.335Zm-14.261-6.066a34.123 34.123 0 0 1-1.71-2.61c-.525 1.44-1.065 2.985-1.695 4.47a69.099 69.099 0 0 1-1.815 3.84 54.64 54.64 0 0 1 3.78-1.125 54.059 54.059 0 0 1 4.425-1.005 83.552 83.552 0 0 1-2.985-3.57Z"/></svg>
